X:809
T:Polca Sheamais Ui Chaoimh
T:Jim Keefe's Polka
S:CRE3p33
Z:Nigel Gatherer
M:2/4
L:1/8
K:D
A | dA/d/ ed | =c/c/A A2 | dA/d/ ef | g2 fe |
    dA/d/ ed | =cA    A2 | f/g/a ge | d2 d :|
e | f>e   fd |  g2    ge | f>e   fa | ge ce |
    f>e   fd |  g>b   ge | fa    ge | d2 d :|
